!!!COM: Peter Cornelius
!!!CNT: Deutsch
!!!TXO: Deutsch
!!!OTL: Sei Mein!
!!!LYR: Cornelius
!!!OPR: An Bertha
!!!OPS: Op. 15
!!!ONM: No. 1
!!!ENC: Ben Fuhrman
!!!YOR: CD Sheet Music, Mid-Romantic German Lieder: The Ultimate Collection.
!!!YOR: CD Sheet Music, LLC 2001
!!!ODT: 1865
!!NB: Only vocal melody encoded.
!!NB: First instance of melodic material only encoded.
!!created: 2/3/10 3:49PM
!!proofed and posted: 2/3/10 3:49PM
**kern	**silbe
*clef G2	*
*k[b-e-]	*
*M3/4	*
*MM[Andantino]	*
=4	=4
4r	.
4r	.
{4f	{Tief,
=5	=5
8f	im
8g	Ge-
4.cc	-mu2t
8g	mir
=6	=6
8g	Lie-
8a	-be
4.dd	glu2ht,
8a	und
=7	=7
8a	wem
8b-	sie
4.ee-	blu2ht
8dd	sollst
=8	=8
4dd	du
4cc}	sein,}
8r	.
{8cc	{sollst
=9	=9
8gg	all'
8ee-	mein
4.dd	Drang
8cc	die
=10	=10
8ff	Ta-
8dd	-ge
4.cc	lang,
8b-	mein
=11	=11
8dd	Nacht-
8b-	-ge-
4.b-	-sang
8g-	zur
=12	=12
4b-	Ruh'
4f}	sein,}
8r	.
{8dd	{mein
=13	=13
4.dd	Nacht-
8dd	-ge-
8cc	-sang
8g	zur
=14	=14
4cc	Ruh'
4b-}	sein.}
4r	.
=15	=15
2.r	.
=16	=16
4r	.
4r	.
8r	.
{8b-	{Wa2r'
=17	=17
8ee-	Glu2ck
8g	mir
4.cc	hold,
8d	all'
=18	=18
8e-	Gut
8f	und
4.g	Gold,
8g	das
=19	=19
4.ee-	dei-
8ee-	-ne
8dd	sollt
8a	im
=20	=20
4cc	Nu
4b-}	sein;}
8r	.
{8b-	{doch
=21	=21
8b-	ho2ch-
8dd	-stes
4.g	Gut,
8cc	mein
=22	=22
8cc	Lust
8ff	und
4.a	Mut,
8a	mein
=23	=23
8ff	Her-
8een	-zens-
4.dd	-blut
8gg	sollst
=24	=24
4gg	du
4cc}	sein!}
4r	.
=25	=25
4r	.
4r	.
8r	.
{8f	{Sollst
=26	=26
8f	bis
8g	zum
4.cc	Tod
8g	mein
=27	=27
8g	Him-
8a	-mels
4.dd	-brot,
8a	mein
=28	=28
8a	Wein
8b-	so
4.ee-	rot
8dd	da-
=29	=29
4dd	-zu
4cc}	sein.}
8r	.
{8cc	{O
=30	=30
8cc	komm,
8dd	o
4.dd	bleib',
8dd	mein
=31	=31
8ff	Lieb,
8dd	mein
4.ee-	Weib,
8ee-	mein
=32	=32
8ee-	Seel'
8een	und
4.een	Leib
8gg	sollst
=33	=33
4gg	du
4ff}	sein.}
8r	.
{8ff	{O
=34	=34
8ff	komm,
8ee-	o
4.b-	bleib',
8ee-	mein
=35	=35
8ee-	Lieb,
8dd	mein
4.an	Weib,
8g	mein
=36	=36
8dd	Seel'
8cc	und
4.cc	Leib
8g-	sollst
=37	=37
4cc	du
4f}	sein!}
4r	.
==	==
*-	*-
